X: 1
T: the Mill, Mill O
O: SRSNH 8.12
R: air
S: printed copy in Concord Slow Scottish Session collection
Z: 2015 John Chambers <jc:trillian.mit.edu>
M: C
L: 1/8
K: D
%%staffsep 40
(de) "A"|\
"D"f2(AB) "D7"A3d | "G"BABd "A7"e2(de) | "D"f2A2 "G"gfed | "A7"B3c "D"d2 :|
A2 "B"|\
"D"defg "D7"a3a | "G"bagf "A7"e2A2 | "D"defg "A7"abag | "D"f3g "A7"a2 ||
A2 |\
"D"defg "Bm"a2(ga) | "Em7"bagf "A7"e2(de) | "D"f2A2 "G"gfed | "A7"B3c "D"d2 |]
